public/illustrations/placeholder_green.svg

<svg fill="none" height="793" viewBox="0 0 1004 793" width="1004" xmlns="http://www.w3.org/2000/svg" xmlns:xlink="http://www.w3.org/1999/xlink"><filter id="a" color-interpolation-filters="sRGB" filterUnits="userSpaceOnUse" height="946" width="1288" x="-143" y="-56"><feFlood flood-opacity="0" result="BackgroundImageFix"/><feBlend in="SourceGraphic" in2="BackgroundImageFix" mode="normal" result="shape"/><feGaussianBlur result="effect1_foregroundBlur_624_13159" stdDeviation="200"/></filter><linearGradient id="b"><stop offset="0" stop-color="#78e7c5"/><stop offset=".442708" stop-color="#70ffb8"/><stop offset="1" stop-color="#9dffad"/></linearGradient><linearGradient id="c" gradientUnits="userSpaceOnUse" x1="727" x2="721.459" xlink:href="#b" y1="412.272" y2="316.991"/><linearGradient id="d" gradientUnits="userSpaceOnUse" x1="668.5" x2="640.697" xlink:href="#b" y1="393.738" y2="210.683"/><linearGradient id="e" gradientUnits="userSpaceOnUse" x1="407.951" x2="395.331" xlink:href="#b" y1="258.323" y2="175.78"/><linearGradient id="f" gradientUnits="userSpaceOnUse" x1="747.951" x2="735.331" xlink:href="#b" y1="527.323" y2="444.78"/><linearGradient id="g" gradientUnits="userSpaceOnUse" x1="575.914" x2="563.367" xlink:href="#b" y1="399.323" y2="316.758"/><clipPath id="h"><path d="m0 0h1004v793h-1004z"/></clipPath><g clip-path="url(#h)"><g filter="url(#a)" opacity=".5"><path d="m745 417s-109.243 73-244 73-244-73-244-73 109.243-73 244-73 244 73 244 73z" fill="url(#c)"/><path d="m744.088 417c-.171.112-.378.245-.618.399-.83.533-2.067 1.315-3.689 2.312-3.244 1.992-8.032 4.84-14.198 8.258-12.333 6.836-30.183 15.952-52.24 25.069-44.118 18.235-105.051 36.462-172.343 36.462s-128.225-18.227-172.343-36.462c-22.057-9.117-39.907-18.233-52.24-25.069-6.166-3.418-10.954-6.266-14.198-8.258-1.622-.997-2.859-1.779-3.689-2.312-.24-.154-.447-.287-.618-.399.171-.112.378-.245.618-.399.83-.533 2.067-1.315 3.689-2.312 3.244-1.992 8.032-4.84 14.198-8.258 12.333-6.836 30.183-15.952 52.24-25.069 44.118-18.235 105.051-36.462 172.343-36.462s128.225 18.227 172.343 36.462c22.057 9.117 39.907 18.233 52.24 25.069 6.166 3.418 10.954 6.266 14.198 8.258 1.622.997 2.859 1.779 3.689 2.312.24.154.447.287.618.399z" stroke="#000"/></g><rect height="285" opacity=".1" rx="23.5" stroke="url(#d)" width="365" x="316.5" y="260.5"/><rect height="128" opacity=".3" rx="15.5" stroke="url(#e)" width="163" x="250.5" y="198.5"/><rect height="128" opacity=".3" rx="15.5" stroke="url(#f)" width="163" x="590.5" y="467.5"/><rect height="128" opacity=".8" rx="15.5" stroke="url(#g)" width="164" x="417.5" y="339.5"/></g></svg>

<svg width="1004" height="793" viewBox="0 0 1004 793" fill="none" xmlns="http://www.w3.org/2000/svg">
<g clip-path="url(#clip0_624_13159)">
<g opacity="0.5" filter="url(#filter0_f_624_13159)">
<path d="M745 417C745 417 635.757 490 501 490C366.243 490 257 417 257 417C257 417 366.243 344 501 344C635.757 344 745 417 745 417Z" fill="url(#paint0_linear_624_13159)"/>
<path d="M744.088 417C743.917 417.112 743.71 417.245 743.47 417.399C742.64 417.932 741.403 418.714 739.781 419.711C736.537 421.703 731.749 424.551 725.583 427.969C713.25 434.805 695.4 443.921 673.343 453.038C629.225 471.273 568.292 489.5 501 489.5C433.708 489.5 372.775 471.273 328.657 453.038C306.6 443.921 288.75 434.805 276.417 427.969C270.251 424.551 265.463 421.703 262.219 419.711C260.597 418.714 259.36 417.932 258.53 417.399C258.29 417.245 258.083 417.112 257.912 417C258.083 416.888 258.29 416.755 258.53 416.601C259.36 416.068 260.597 415.286 262.219 414.289C265.463 412.297 270.251 409.449 276.417 406.031C288.75 399.195 306.6 390.079 328.657 380.962C372.775 362.727 433.708 344.5 501 344.5C568.292 344.5 629.225 362.727 673.343 380.962C695.4 390.079 713.25 399.195 725.583 406.031C731.749 409.449 736.537 412.297 739.781 414.289C741.403 415.286 742.64 416.068 743.47 416.601C743.71 416.755 743.917 416.888 744.088 417Z" stroke="black"/>
</g>
<rect opacity="0.1" x="316.5" y="260.5" width="365" height="285" rx="23.5" stroke="url(#paint1_linear_624_13159)"/>
<rect opacity="0.3" x="250.5" y="198.5" width="163" height="128" rx="15.5" stroke="url(#paint2_linear_624_13159)"/>
<rect opacity="0.3" x="590.5" y="467.5" width="163" height="128" rx="15.5" stroke="url(#paint3_linear_624_13159)"/>
<rect opacity="0.8" x="417.5" y="339.5" width="164" height="128" rx="15.5" stroke="url(#paint4_linear_624_13159)"/>
</g>
<defs>
<filter id="filter0_f_624_13159" x="-143" y="-56" width="1288" height="946" filterUnits="userSpaceOnUse" color-interpolation-filters="sRGB">
<feFlood flood-opacity="0" result="BackgroundImageFix"/>
<feBlend mode="normal" in="SourceGraphic" in2="BackgroundImageFix" result="shape"/>
<feGaussianBlur stdDeviation="200" result="effect1_foregroundBlur_624_13159"/>
</filter>
<linearGradient id="paint0_linear_624_13159" x1="727" y1="412.272" x2="721.459" y2="316.991" gradientUnits="userSpaceOnUse">
<stop stop-color="#78E7C5"/>
<stop offset="0.442708" stop-color="#70FFB8"/>
<stop offset="1" stop-color="#9DFFAD"/>
</linearGradient>
<linearGradient id="paint1_linear_624_13159" x1="668.5" y1="393.738" x2="640.697" y2="210.683" gradientUnits="userSpaceOnUse">
<stop stop-color="#78E7C5"/>
<stop offset="0.442708" stop-color="#70FFB8"/>
<stop offset="1" stop-color="#9DFFAD"/>
</linearGradient>
<linearGradient id="paint2_linear_624_13159" x1="407.951" y1="258.323" x2="395.331" y2="175.78" gradientUnits="userSpaceOnUse">
<stop stop-color="#78E7C5"/>
<stop offset="0.442708" stop-color="#70FFB8"/>
<stop offset="1" stop-color="#9DFFAD"/>
</linearGradient>
<linearGradient id="paint3_linear_624_13159" x1="747.951" y1="527.323" x2="735.331" y2="444.78" gradientUnits="userSpaceOnUse">
<stop stop-color="#78E7C5"/>
<stop offset="0.442708" stop-color="#70FFB8"/>
<stop offset="1" stop-color="#9DFFAD"/>
</linearGradient>
<linearGradient id="paint4_linear_624_13159" x1="575.914" y1="399.323" x2="563.367" y2="316.758" gradientUnits="userSpaceOnUse">
<stop stop-color="#78E7C5"/>
<stop offset="0.442708" stop-color="#70FFB8"/>
<stop offset="1" stop-color="#9DFFAD"/>
</linearGradient>
<clipPath id="clip0_624_13159">
<rect width="1004" height="793" fill="white"/>
</clipPath>
</defs>
</svg>
